X:1
T:Herr wir danken dir
T:Ferdinand Möhring
T:Herr wir danken dir
T:CPDL   —   Creative Commons Attribution Non Commercial 3.0
T:CPDL   —   Creative Commons Attribution Non Commercial 3.0
T:CPDL   —   Creative Commons Attribution Non Commercial 3.0
T:CPDL   —   Creative Commons Attribution Non Commercial 3.0
C:Ferdinand Möhring
Z:CPDL   —   Creative Commons Attribution Non Commercial 3.0
%%score [ ( 1 2 ) 3 4 ]
L:1/8
Q:1/4=80
M:4/4
K:Bb
V:1 treble nm="Sopran\nAlt"
V:2 treble 
V:3 treble-8 nm="Tenor"
V:4 bass nm="Bass"
V:1
"^Mäßig"!f! B2 z2!>(! d3!>)! B | A>B c2 z4 | c2 z2 e3 A | B>c d2 z4 |!p!!<(! B4 B2 e2!<)! | %5
w: Herr, Herr wir|dan- ken dir,|Herr, Herr wir|dan- ken dir,|lass dei- nen|
!>(! d4 B4!>)! |!<(! B4 B2 e2!<)! |!>(! d4!>)! B4 | c3 c c2 B2 | A2 B2 c2 d2 | (G4 c2) B2 | A4 z4 | %12
w: Se- gen|ü- ber uns|kom- men|und er- fül- le|un- ser Herz mit|Freu- * dig-|keit!|
!f! B2 z2 !>!d3 B | A>B c2 z4 | c2 z2 !>!e3 A | B>c d2 z4 |!p!!<(! B4!<)! B2 e2 | d4 B2 z2 | %18
w: Herr, Herr wir|dan- ken dir,|Herr, Herr wir|dan- ken dir,|lass dei- nen|Se- gen|
 B4 B2 e2 | d4 B2 d>d | e2 d2 c2 B2 | (A4 B2) c2 | (d3 c) (B2 d2) | c2 c2 c2 d2 | e8- | %25
w: ü- ber uns|kom- men und er-|fül- le un- ser|Herz _ mit|Freu- * dig- *|keit, mit Freu- dig-|keit,|
 e2 c2 d2 e2 | f8- | f2 d2 e2 f2 | !fermata!g4 z2!p! B2 | c3 c f3 f | %30
w: _ mit Freu- dig-|keit,|_ mit Freu- dig-|keit, er-|fül- le un- ser|
 d2[Q:1/4=90]"^Mehr bewegt." d>!<(!c c>B!<)! B>c | d8- | d2!<(! d>e e>f f>g!<)! | (g4 f2) e2 | %34
w: Herz! Herr, _ dir _ sei _|Preis,|_ Herr, _ dir _ sei _|Preis _ und|
 d2 fe d2 c2 | B2 z2 z4 | z2!<(! d>c c>B B>c!<)! | d2!<(! d>e e>f f>g!<)! |!>(! (g4 f2)!>)! e2 | %39
w: Dank in _ E- wig-|keit!|Herr, _ dir _ sei _|Preis, Herr, _ dir _ sei _|Preis _ und|
 d2 fe d2 c2 |!p! B8- | B8- |"^dim." B4 B4 | B4 B4 | !fermata!B8 |] %45
w: Dank in _ E- wig-|keit,|_|* in|E- wig-|keit!|
V:2
 F2 x2 F3 F | E>D C2 x4 | F2 x2 G3 F | F>E D2 x4 | G4 F2 F2 | F4 D4 | G4 F2 F2 | F4 D4 | %8
w: ||||||||
 G3 =E F2 G2 | F6 F2 | F3 F =E2 E2 | F4 x4 | F2 x2 F3 F | E>D C2 x4 | F2 x2 G3 F | F>E D2 x4 | %16
w: |un- ser|Herz mit Freu- dig-|keit!|||||
 G4 F2 F2 | F4 F2 x2 | G4 F2 F2 | F4 F2 F>F | E2 F2 G2 G2 | F6 F2 | F4 F4 | F2 A2 A2 _A2 | G6 A2 | %25
w: |||||||* er- fül- le|un- ser|
 F8- | F2 FG _AG FE | D2 B2 B2 B2 | B4 x2 F2 | G3 G F3 F | F2 B>F F>D D>F | B8- | B2 B2 B2 B2 | %33
w: Herz|_ mit _ Freu- * dig- *|keit, * * *||||||
 B6 A2 | B2 AG F2 E2 | D2 x2 x4 | x2 B>F F>D D>F | B2 B2 B2 B2 | B6 A2 | B2 AG F2 E2 | %40
w: |||||||
 D2!p! F2 E2 G2 | F2 D2 E2 C2 | D4 E4 | D4 E4 | D8 |] %45
w: keit, in E- wig-|keit, in E- wig-|keit, *|||
V:3
!f! d2 z2!>(! d3!>)! d | c>B A2 z4 | A2 z2 c3 e | d>c B2 z4 |!p!!<(! B4 B2 A2!<)! |!>(! B4 B4!>)! | %6
w: Herr, Herr wir|dan- ken dir,|Herr, Herr wir|dan- ken dir,|lass dei- nen|Se- gen|
!<(! B4 B2 A2!<)! |!>(! B4!>)! d4 | c3 c c2 c2 | c2 B2 F2 d2 | c4 c4 | c4 z4 |!f! d2 z2 !>!B3 d | %13
w: ü- ber uns|kom- men|und er- fül- le|un- ser Herz mit|Freu- dig-|keit!|Herr, Herr wir|
 c>B A2 z4 | A2 z2 !>!c3 e | d>c B2 z4 |!p!!<(! e4!<)! d2 c2 | B4 d2 z2 | e4 d2 c2 | B4 d2 BB | %20
w: dan- ken dir,|Herr, Herr wir|dan- ken dir,|lass dei- nen|Se- gen|ü- ber uns|kom- men und er-|
 B2 B2 e2 _d2 | (c4 B2) F2 | B4 B4 | A2 z2 z4 | z2 cd ed cB | A2 A2 f2 e2 | d6 c2 | B2 B2 c2 d2 | %28
w: fül- le un- ser|Herz _ mit|Freu- dig-|keit,|mit _ Freu- * dig- *|keit, er- fül- le|un- ser|Herz mit Freu- dig-|
 !fermata!e4 z2!p! B2 | B3 B A3 A | B2 z2 z4 | z2!f!!<(! d>c c>B B>c!<)! | d2!<(! B>c c>d d>e!<)! | %33
w: keit, er-|fül- le un- ser|Herz!.|Herr, _ dir _ sei _|Preis, Herr, _ dir _ sei _|
 (e4 d2) c2 | B2 B2 B2 A2 | B2!<(! d>c c>B B>c!<)! | d8- | d2 B>c c>d d>e |!>(! (e4 d2)!>)! c2 | %39
w: Preis _ und|Dank in E- wig-|keit! Herr, _ dir _ sei _|Preis,|_ Herr, _ dir _ sei _|Preis _ und|
 B2 B2 B2 A2 | B2!p! d2 c2 e2 | d2 B2 c2 A2 |"^dim." B4 G4 | F4 G4 | !fermata!F8 |] %45
w: Dank in E- wig-|keit, in E- wig-|keit, in E- wig-|keit, in|E- wig-|keit!|
V:4
!f! B,8 | F,3 F, F,2 F,2 | F,8 | B,,3 B,, B,,2 B,,2 |!p!!<(! (E,4 D,2) C,2!<)! | %5
w: Herr,|Herr wir dan- ken|dir,|Herr wir dan- ken|dir, _ lass|
!>(! (B,,2 D,2) (G,2 F,2)!>)! |!<(! (E,4 D,2) C,2!<)! |!>(! (B,,2 D,2)!>)! G,2 F,2 | %8
w: dei- * nen _|Se- * gen|ü- * ber uns|
 =E,3 C, D,2 E,2 | F,2 D,2 A,,2 B,,2 | C,4!<(! C,2 C,2!<)! |!>(! F,3 _E, D,2!>)! C,2 |!f! B,,8 | %13
w: kom- men und er-|fül- le un- ser|Herz, un- ser|Herz mit Freu- dig-|keit!|
 F,3 F, F,2 F,2 | F,8 | B,3 B, B,2 B,2 |!p! B,6 F,>F, | B,3 B, B,2 B,2 | B,6 F,>F, | %19
w: Herr wir dan- ken|dir,|Herr wir dan- ken|dir, und er-|fül- le un- ser|Herz, un- ser|
 B,3 B, B,2 _A,2 | G,2 F,2 E,2 =E,2 | F,2 _E,2 D,2 A,,2 | B,,4 D,4 | F,2 F,2 F,2 F,2 | C,6 C,2 | %25
w: Herz mit Freu- dig-|keit, er- fül- le|un- ser Herz mit|Freu- dig-|keit, er- fül- le|un- ser|
 F,2 E,2 D,2 C,2 | B,,8- | B,,2 _A,2 G,2 F,2 | !fermata!E,4 z2!p! D,2 | E,3 E, F,3 F, | %30
w: Herz mit Freu- dig-|keit,|* mit Freu- dig-|keit, er-|fül- le un- ser|
 B,,2 z2 z4 | z2!f!!<(! B,>F, F,>D, D,>F,!<)! | B,2!<(! B,2 A,2 _A,2!<)! | (G,2 =A,2 B,2) ^F,2 | %34
w: Herz!.|Herr, _ dir _ sei _|Preis, Herr, dir sei|Preis _ _ und|
 G,2 D,E, F,2 F,2 | B,,2!<(! B,>F, F,>D, D,>F,!<)! | B,8- | B,2 B,2 A,2 _A,2 | %38
w: Dank in _ E- wig-|keit! Herr, _ dir _ sei _|Preis,|_ Herr, dir sei|
!>(! (G,2 =A,2 B,2)!>)! ^F,2 | G,2 D,E, F,2 F,2 |!p! B,,8- | B,,8- |"^dim." B,,4 E,4 | B,,4 E,4 | %44
w: Preis _ _ und|Dank in _ E- wig-|keit,|_|* in|E- wig-|
 !fermata!B,,8 |] %45
w: keit!|

